X:2046
T:Lhig dooin ardvoylley choyrt da'n Chiarn
T:Er Ean bashtey 
C:Simpson Clucas, Castletown
O:Isle of Man
S:Traditional
Z:Clague collection
B:Kiaull Vannin #46 
N:Revised version given. See also KV 44, 88, 268 and 292. See also Carvalyn Gailckagh, Moore et al., p.76.
L:1/4
M:3/4 
Q:160 
K:G 
E|E2 E|B2 B|A2 G|F2 F|G2 G|AG A|B3-|B2 c| 
BA G|F2 G|AG A|B2 E|G2 E|F2 G/F/|E3-|E2|| 
